public/svgs/contact-email.svg

<svg width="20" height="20" viewBox="0 0 20 20" fill="none" xmlns="http://www.w3.org/2000/svg">
<g id="Frame" opacity="0.5">
<path id="Vector" d="M4.4 15.5994C4.015 15.5994 3.68542 15.4623 3.41125 15.1882C3.13708 14.914 3 14.5844 3 14.1994V5.79941C3 5.41441 3.13708 5.08483 3.41125 4.81066C3.68542 4.5365 4.015 4.39941 4.4 4.39941H15.6C15.985 4.39941 16.3146 4.5365 16.5887 4.81066C16.8629 5.08483 17 5.41441 17 5.79941V14.1994C17 14.5844 16.8629 14.914 16.5887 15.1882C16.3146 15.4623 15.985 15.5994 15.6 15.5994H4.4ZM10 11L15.6 7.5V5.79941L10 9.29941L4.4 5.79941V7.5L10 11Z" fill="black"/>
</g>
</svg>

<svg xmlns="http://www.w3.org/2000/svg" width="20" height="20" fill="none" viewBox="0 0 20 20"><path fill="#000" d="M4.4 15.6q-.578 0-.989-.412A1.35 1.35 0 0 1 3 14.2V5.8q0-.577.411-.988t.989-.412h11.2q.578 0 .989.412.411.41.411.988v8.4q0 .578-.411.99a1.35 1.35 0 0 1-.989.41zM10 11l5.6-3.5V5.8L10 9.3 4.4 5.8v1.7z" opacity=".5"/></svg>
